usr/share/icons/biglinux-icons-material/scalable/mimetypes/text-x-authors.svg

<svg width="24" height="24" viewBox="0 0 24 24" fill="none" xmlns="http://www.w3.org/2000/svg">
<rect x="1" y="1" width="22" height="22" rx="6.6" fill="url(#paint0_radial_6_178)"/>
<path d="M14.0685 7C13.6935 7 13.3401 7.06963 13.0154 7.20987C12.6926 7.34313 12.4074 7.53856 12.1699 7.791L12.1673 7.79377C11.936 8.04755 11.756 8.35404 11.6289 8.70425C11.5003 9.05266 11.437 9.43676 11.437 9.85048C11.437 10.2704 11.4999 10.6565 11.6287 11.0055C11.756 11.3502 11.9355 11.6525 12.1666 11.9061L12.1688 11.9089C12.4063 12.1614 12.6904 12.3603 13.0126 12.4999L13.0146 12.5008L13.0163 12.5015C13.3408 12.6351 13.6938 12.7011 14.0685 12.7011C14.4431 12.7011 14.7963 12.6351 15.1208 12.5015L15.1228 12.5006L15.1245 12.4999C15.4472 12.3601 15.7281 12.1607 15.9597 11.9069C16.1971 11.6536 16.3813 11.3503 16.5086 11.0055C16.6374 10.6566 16.6999 10.2705 16.6999 9.85058C16.6999 9.43749 16.6372 9.05469 16.509 8.70673L16.5082 8.70408C16.3811 8.35384 16.198 8.04818 15.9604 7.79468C15.7287 7.54068 15.4462 7.34384 15.1228 7.21034C14.7988 7.07045 14.4447 7.00033 14.0706 7.00011L14.0685 7ZM14.0674 7.4471C14.3885 7.4471 14.6801 7.50555 14.9467 7.62108L14.9486 7.62196L14.9503 7.62263C15.2174 7.73261 15.4418 7.88911 15.6302 8.09581L15.6332 8.09916C15.8276 8.30622 15.9794 8.55688 16.0884 8.85831L16.0904 8.86344L16.0911 8.86658C16.1976 9.15783 16.2527 9.48474 16.2527 9.85058C16.2527 10.2261 16.1967 10.5581 16.0887 10.8506C15.9798 11.1456 15.8283 11.394 15.6331 11.6018L15.6309 11.6045C15.4426 11.8111 15.2171 11.9714 14.95 12.0877C14.6831 12.1973 14.3904 12.2538 14.0685 12.2538C13.7467 12.2538 13.4553 12.198 13.1884 12.0884C12.9214 11.9721 12.6915 11.8113 12.4963 11.6041C12.3074 11.3963 12.1573 11.1464 12.0481 10.8507C11.9401 10.5581 11.8842 10.2262 11.8842 9.85065C11.8842 9.48409 11.9395 9.15684 12.0464 8.86517L12.0477 8.8607L12.0486 8.85834C12.158 8.55616 12.3072 8.30496 12.4955 8.09792C12.6907 7.89066 12.9195 7.73248 13.1865 7.62255L13.1885 7.62189L13.1904 7.62101C13.4566 7.50562 13.7468 7.44722 14.0674 7.4471ZM8.63466 8.31402C8.35071 8.31402 8.08101 8.36712 7.83362 8.47388C7.58762 8.57549 7.36901 8.72518 7.18791 8.9178L7.18634 8.91958C7.00959 9.11343 6.87238 9.34762 6.77619 9.61312C6.77609 9.61323 6.77563 9.61453 6.77552 9.61465C6.67833 9.8788 6.63105 10.1683 6.63105 10.4792C6.63105 10.7953 6.67844 11.0879 6.77638 11.3531C6.87275 11.6141 7.00946 11.8446 7.18567 12.0378L7.18782 12.0404C7.36876 12.2328 7.58559 12.3842 7.83092 12.4905L7.83567 12.4927C8.08257 12.5941 8.35157 12.6442 8.63479 12.6442C8.9181 12.6442 9.1865 12.5944 9.43348 12.4929C9.43335 12.493 9.43359 12.4928 9.43348 12.4929L9.43625 12.4914L9.43824 12.4905C9.68373 12.3841 9.89869 12.232 10.0753 12.0385C10.2561 11.8455 10.3966 11.6141 10.493 11.353C10.5909 11.0878 10.6381 10.7952 10.6381 10.4791C10.6381 10.1681 10.5908 9.87829 10.4934 9.61397C10.3971 9.34807 10.2573 9.11374 10.0756 8.92C9.89887 8.72657 9.68243 8.57591 9.4365 8.47433C9.18909 8.36756 8.91863 8.31402 8.63466 8.31402ZM8.62159 8.76134H8.63466C8.86476 8.76134 9.07119 8.80306 9.26043 8.88508L9.26259 8.88576L9.26457 8.88663C9.45413 8.96466 9.61198 9.07514 9.74523 9.2211L9.74655 9.22243L9.74853 9.22408C9.88671 9.37104 9.99467 9.54956 10.073 9.76586L10.074 9.76901C10.1509 9.97787 10.191 10.2134 10.191 10.4792C10.191 10.7509 10.1507 10.9893 10.0736 11.1982C9.99551 11.4098 9.88719 11.5863 9.74835 11.734L9.74703 11.7355L9.74591 11.737C9.61226 11.8836 9.45289 11.9964 9.26268 12.0792L9.26115 12.0799C9.07195 12.1573 8.86513 12.1974 8.63473 12.1974C8.40424 12.1974 8.19717 12.1574 8.00788 12.0799C7.81781 11.9972 7.65472 11.8831 7.51605 11.7362C7.38192 11.5887 7.27424 11.4109 7.19584 11.1986C7.1187 10.9896 7.07851 10.7512 7.07851 10.4794C7.07851 10.2133 7.1186 9.97745 7.19564 9.76839C7.19552 9.76868 7.19575 9.76806 7.19564 9.76839L7.1963 9.76581C7.27486 9.54876 7.38172 9.37016 7.51517 9.22338C7.65361 9.07671 7.81524 8.96456 8.00486 8.88651L8.00651 8.88584L8.0085 8.88498C8.19284 8.80509 8.39469 8.76505 8.61762 8.76293L8.62159 8.76134ZM14.1309 13.666C12.1591 13.666 10.957 13.8458 10.206 14.4025C9.83162 14.6799 9.58551 15.0561 9.44403 15.5064C9.30788 15.9397 9.26295 16.483 9.2581 17.0729L9.70542 17.0739C9.71039 16.5088 9.75603 16.006 9.87084 15.6406C9.99032 15.2603 10.1749 14.9823 10.4725 14.7618C11.0709 14.3183 12.1887 14.1131 14.1309 14.1131C16.0733 14.1131 17.191 14.3184 17.7888 14.7618C18.0861 14.9822 18.2704 15.2602 18.3894 15.6404C18.5037 16.0057 18.5485 16.5085 18.5527 17.0735L19 17.0731C18.9962 16.4832 18.952 15.9401 18.8164 15.5068C18.6755 15.0565 18.4293 14.6799 18.0551 14.4025C17.3044 13.8457 16.1027 13.666 14.1309 13.666ZM8.50165 13.5723C7.10377 13.5766 6.27804 13.7127 5.71787 14.1306C5.43445 14.342 5.24613 14.6337 5.14039 14.9765C5.03429 15.3205 5.00104 15.7174 5 16.1864V16.8551H5.4471V16.187C5.44814 15.7401 5.48289 15.3831 5.56764 15.1084C5.65193 14.8351 5.77938 14.6426 5.98503 14.4892C6.39384 14.1842 7.1354 14.0251 8.50163 14.0198L8.50165 13.5723Z" fill="#999999"/>
<defs>
<radialGradient id="paint0_radial_6_178" cx="0" cy="0" r="1" gradientUnits="userSpaceOnUse" gradientTransform="translate(17.5 1) rotate(116.565) scale(24.5967)">
<stop stop-color="#F4F4F4"/>
<stop offset="1" stop-color="#BBBBBB"/>
</radialGradient>
</defs>
</svg>

<svg xmlns="http://www.w3.org/2000/svg" width="24" height="24" fill="none"><rect width="22" height="22" x="1" y="1" fill="url(#a)" rx="6.6"/><path fill="#999" d="M14.069 7c-.376 0-.729.07-1.054.21a2.422 2.422 0 0 0-.845.581l-.003.003c-.231.254-.411.56-.538.91a3.295 3.295 0 0 0-.192 1.146c0 .42.063.806.192 1.155.127.345.306.647.538.901l.002.003c.237.252.521.451.844.59l.002.002h.001c.325.134.678.2 1.053.2.374 0 .727-.066 1.052-.2h.002l.002-.001c.322-.14.603-.34.835-.593.237-.253.421-.557.549-.902.128-.348.19-.735.19-1.154 0-.414-.062-.796-.19-1.144v-.003a2.625 2.625 0 0 0-.549-.91 2.326 2.326 0 0 0-.837-.584A2.642 2.642 0 0 0 14.07 7h-.002Zm-.002.447c.322 0 .613.059.88.174l.002.001h.001c.267.11.492.267.68.474l.003.003c.195.207.346.458.455.76l.002.004.001.004c.107.29.162.618.162.984 0 .375-.056.707-.164 1-.11.295-.26.543-.456.75l-.002.003a1.97 1.97 0 0 1-.681.484c-.267.11-.56.166-.881.166-.322 0-.614-.056-.88-.166a2.078 2.078 0 0 1-.693-.484 2.278 2.278 0 0 1-.448-.753 2.869 2.869 0 0 1-.164-1c0-.367.056-.694.162-.986l.002-.004v-.003a2.25 2.25 0 0 1 .447-.76c.196-.207.425-.366.692-.475l.002-.001.001-.001c.267-.115.557-.174.877-.174Zm-5.432.867c-.284 0-.554.053-.801.16a1.852 1.852 0 0 0-.646.444l-.002.002a2.064 2.064 0 0 0-.41.693v.002a2.49 2.49 0 0 0-.145.864c0 .316.047.609.145.874.097.261.233.492.41.685l.002.002c.18.193.398.344.643.45l.005.003c.247.101.516.151.799.151.283 0 .552-.05.798-.151l.003-.002h.002c.246-.107.46-.259.637-.452.181-.194.322-.425.418-.686a2.51 2.51 0 0 0 .145-.874c0-.31-.047-.6-.145-.865a2.002 2.002 0 0 0-.417-.694 1.782 1.782 0 0 0-.64-.446 2.013 2.013 0 0 0-.801-.16Zm-.013.447h.013c.23 0 .436.042.625.124h.003l.002.002c.19.078.347.188.48.334l.002.001.002.002c.138.147.246.326.324.542l.001.003c.077.209.117.444.117.71 0 .272-.04.51-.117.72a1.554 1.554 0 0 1-.326.535l-.001.002-.001.001c-.134.147-.293.26-.483.342H9.26c-.189.078-.396.118-.626.118-.23 0-.438-.04-.627-.117a1.478 1.478 0 0 1-.492-.344 1.624 1.624 0 0 1-.32-.537 2.063 2.063 0 0 1-.117-.72c0-.266.04-.502.117-.71v-.003c.079-.217.186-.396.32-.543.138-.146.3-.258.489-.336l.002-.001.002-.001c.184-.08.386-.12.609-.122l.004-.002Zm5.509 4.905c-1.972 0-3.174.18-3.925.736-.374.278-.62.654-.762 1.104-.136.434-.181.977-.186 1.567h.447c.005-.564.051-1.067.166-1.432.12-.38.304-.659.601-.88.599-.443 1.717-.648 3.659-.648 1.942 0 3.06.205 3.658.649.297.22.481.498.6.878.115.366.16.869.164 1.433H19c-.004-.59-.048-1.133-.184-1.566a2.12 2.12 0 0 0-.76-1.104c-.752-.557-1.953-.737-3.925-.737Zm-5.63-.094c-1.397.005-2.223.14-2.783.559a1.625 1.625 0 0 0-.578.845c-.106.344-.139.741-.14 1.21v.67h.447v-.669c.001-.447.036-.804.12-1.079a1.14 1.14 0 0 1 .418-.619c.409-.305 1.15-.464 2.517-.47v-.447Z"/><defs><radialGradient id="a" cx="0" cy="0" r="1" gradientTransform="rotate(116.565 8.441 5.908) scale(24.5967)" gradientUnits="userSpaceOnUse"><stop stop-color="#F4F4F4"/><stop offset="1" stop-color="#BBB"/></radialGradient></defs></svg>
